X:36
T: Der verkleidete Reiter
N: D0036
O: Europa, Mitteleuropa, Lothringen, Weiler
N: Notenwert in Zeile 261 korrigiert
R: Ballade
M: 6/8
L: 1/8
K: G
G | G2GGAG | =F3G2
A | _BAGcBA | G3-G2
G | _B2=FB2c | d3dc
c | dddGAG | =F3G2
A | _BAGcBA | G3-G2

